X:20
T: Trip We Took Over the Mountain
S: J.O'Sullivan
Z: B.Black
R: reel
M: 4/4
L: 1/8
K: G
D|DG G2 BG G2|A^G (3^GGG f2 =ga|gd d2 cA A2|\
GBAG (3FED FD |
DG G2 BG G2|A^G (3^GGG f2 =ga|gd d2 cA A2|GBAF G3 :|
g|gd d2 g2 ag|=fdde f2 ga|gd d2 cA A2|GBAG (3FED FD |
gd d2 g2 ag|=fdde f2 ga|gd d2 cA A2|GBAF G3 :|
